X: 28
T:Gold Rush
S:https://tunearch.org/wiki/Gold_Rush
M:4/4
L:1/8
R:Reel
K:A
AB|:"A"c2 e2 efed|"A" c2 e4 c (e|"A" e)afe cBAG|"Bm" F6 EF|
"D" A2 AB cBAB|"Bm" cBAE F4 |"E" EFAB cBAF |1"A" A2 AB A2 AB:|
|2"A" A2 AB A2 cB|:"A"ABAF E2 FE|"D" D2 E2 "A" C2- E(E|"A" E2) EE F2 A2|"F#m" BccB c2cB|
"A" ABAF E2 FE|"D" D2 E2 C2- E(E|"E"E)FAB cBAF |1"A"A2 AB A2 cB:|2"A"A2 AB A4||

